app/images/dist/email.svg

<svg width="20" height="20" viewBox="0 0 20 20" fill="none" xmlns="http://www.w3.org/2000/svg">
<path d="M14.168 17.0833H5.83464C3.33464 17.0833 1.66797 15.8333 1.66797 12.9166V7.08329C1.66797 4.16663 3.33464 2.91663 5.83464 2.91663H14.168C16.668 2.91663 18.3346 4.16663 18.3346 7.08329V12.9166C18.3346 15.8333 16.668 17.0833 14.168 17.0833Z" stroke="#292D32" stroke-width="1.5" stroke-miterlimit="10" stroke-linecap="round" stroke-linejoin="round"/>
<path d="M14.1654 7.5L11.557 9.58333C10.6987 10.2667 9.29036 10.2667 8.43203 9.58333L5.83203 7.5" stroke="#292D32" stroke-width="1.5" stroke-miterlimit="10" stroke-linecap="round" stroke-linejoin="round"/>
</svg>

<svg width="20" height="20" fill="none" xmlns="http://www.w3.org/2000/svg"><path d="M14.168 17.083H5.835c-2.5 0-4.167-1.25-4.167-4.166V7.083c0-2.916 1.667-4.166 4.167-4.166h8.333c2.5 0 4.167 1.25 4.167 4.166v5.834c0 2.916-1.667 4.166-4.167 4.166Z" stroke="#292D32" stroke-width="1.5" stroke-miterlimit="10" stroke-linecap="round" stroke-linejoin="round"/><path d="m14.165 7.5-2.608 2.083c-.858.684-2.267.684-3.125 0L5.832 7.5" stroke="#292D32" stroke-width="1.5" stroke-miterlimit="10" stroke-linecap="round" stroke-linejoin="round"/></svg>
